dist/images/logo_yahoo.svg

<svg width="2544" height="933" viewBox="0 0 2544 933" fill="none" xmlns="http://www.w3.org/2000/svg"><path d="M1048.9 0v209.8c1.7-1.9 2.7-2.9 3.7-4 24-27.6 54.8-41 90.9-42.7 24.3-1.1 47.9 2.4 69.8 13.6 32.4 16.4 51.8 43.5 62.6 77.4 6.4 20 8.9 40.6 8.9 61.6.1 80.2 0 160.3 0 240.5v4.7h-137.5v-6.3c0-68 .2-136-.2-204-.1-10.2-1.5-20.7-4.3-30.5-4.7-16.6-16.1-27.1-33.4-29.7-18.5-2.8-34.9 1.5-46.7 17.1-8.9 11.7-12.4 25.4-12.7 39.8-.5 20.7-.2 41.3-.2 62v151.6H912.3V554 7.1c0-2.3-.2-4.6-.3-7 45.6-.1 91.3-.1 136.9-.1zM2543.9 1c-7.7 18.2-15.4 36.4-23 54.7-40.4 97.4-80.7 194.8-121 292.3-1.2 2.9-2.5 4.5-6 4.4-51.3-.1-102.6-.1-153.9-.1-1.3 0-2.6-.2-4.8-.3 48.7-117.6 97.2-234.8 145.7-352h159c1.4 0 2.7.7 4 1zM734.1 207.6v-35.2h132.1v388.4H734v-35.4c-1.1 1-1.6 1.3-2 1.7-19.7 24.3-45.9 37.1-76.2 41.7-81.6 12.4-158.1-29.2-191.7-107.3-35.5-82.5-27.8-161.8 28.7-233C529 183 578 161 636.5 163.3c37.5 1.5 70.6 14.3 95.9 43.5.2.2.5.2 1.7.8zM576.5 367c0 45.1 35 79.9 80.3 80 45 .1 80-34.8 80.1-79.6.1-45.2-34.9-80.3-80-80.3-45.3.1-80.4 34.9-80.4 79.9zM106.4 705c5.9-14 11.5-27.3 17.2-40.6 13.5-32 27-64.1 40.7-96.1 1.3-3 1.3-5.4 0-8.4-54-127-107.9-254.2-161.7-381.3-.8-1.9-1.6-3.9-2.6-6.4h6.1c45.7 0 91.3.1 137-.1 4.3 0 6.3 1.2 7.9 5.3 28.2 72.4 56.5 144.7 84.8 217.1.6 1.5 1.2 3 2.2 5.4.9-2 1.5-3.2 2-4.4 28.6-72.6 57.3-145.1 85.8-217.7 1.7-4.2 3.6-5.6 8.2-5.6 44.3.2 88.7.1 133 .1h5.9c-.5 1.6-.8 2.9-1.2 4.1-72.6 175-145.2 350-217.7 525.1-1.1 2.8-2.4 4.2-5.7 4.2-45.8-.1-91.7-.1-137.5-.1-1.2-.2-2.4-.4-4.4-.6zM1312.9 367.2c.5-101.8 68.3-183.4 169-200.7 66.6-11.4 127.7 2.5 179.7 47.4 37.6 32.4 59 74.2 65.6 123.3 6.9 51.7-2.3 100.3-31.4 144.1-32.3 48.5-78.3 76.7-135.3 86.5-49.5 8.5-97.5 2.5-142-21.8-58.5-31.8-92.3-81.5-102.6-147.1-1.7-10.4-2.1-21.1-3-31.7zm208.6 78.1c44 0 77.4-33.9 77.5-78.2 0-44.4-33.4-78.2-77.4-78.3-44.3-.1-77.7 33.8-77.7 78.4.1 44.5 33.6 78.2 77.6 78.1zM2169 367c-.6 101.4-67.7 182.6-168 200.4-63.1 11.2-121.8-.8-173-40.8-41.8-32.7-65.8-76.3-73.1-128.7-7.1-50.8 1.5-98.7 29.4-142.1 32.7-50.8 80-80 139.2-89.7 47.3-7.8 93.2-2.2 136 20 60.7 31.5 95.9 81.8 106.5 149.2 1.7 10.4 2 21.1 3 31.7zm-208.6 78.3c44 .1 77.5-33.6 77.6-78 .1-44.5-33.2-78.3-77.1-78.5-44.3-.1-77.9 33.7-77.9 78.2 0 44.4 33.4 78.3 77.4 78.3zM1624.8 728.4v-22.6h79.1v219.8h-79V904c-3.7 3.4-6.8 6.6-10.2 9.4-18.6 15.6-40.4 20.7-64 18.1-37.4-4.1-64.6-24-80.1-57.7-21.5-46.8-18.8-92.9 11.9-135.2 26-35.9 73.8-48.9 112.8-32.7 11.4 4.7 21 11.7 29.5 22.5zm2.2 87.1c0-24.7-20-44.4-45.1-44.4-25.3-.1-45.6 19.8-45.5 44.6.1 24.7 20 44.3 45.2 44.3 25.5.1 45.5-19.4 45.4-44.5zM1298.9 925.7h-80.4v-220h80.2v24.4c1.3-1.4 1.9-1.9 2.3-2.5 16-22.1 38.3-29.9 64.6-28.1 40.4 2.8 62.9 30.5 68.2 66.5 1.1 7.4 1.5 14.9 1.5 22.4.1 43.7.1 87.3.1 131v6.2h-80.6V920c0-37.3.1-74.7-.1-112 0-6.2-1-12.7-2.9-18.6-3.2-10.2-10.7-15.8-21.4-16.7-11-.9-20 2.7-25.9 12.5-4.3 7.2-5.6 15.2-5.6 23.5v117zM1818.4 705.7v22.9c.6.3 1.1.7 1.7 1 .3-.8.3-1.7.8-2.3 15.8-21.8 37.9-29.5 63.8-27.8 42.2 2.8 64.5 32.2 69.2 69.4.8 5.9 1.1 12 1.1 17.9.1 44.8.1 89.7 0 134.5 0 1.3-.1 2.6-.2 4.3h-80.6v-5.9c0-37.2.1-74.3-.1-111.5 0-6.1-.7-12.4-2.4-18.2-3.2-10.5-10.8-16.5-22-17.4-11.3-.8-20.2 3.2-26 13.2-4.4 7.6-5.2 16-5.2 24.6v115.2h-80.2v-220c26.4.1 52.9.1 80.1.1zM2385.8 878.1c-11 18.5-25.7 32.8-45.1 41.4-38 16.7-76.7 17.6-115 1.6-31.5-13.1-50.8-37.6-58.8-70.5-9-36.8-5.4-72.1 17.3-103.5 25.3-35 60.7-49.5 103.2-47.6 21.2.9 41 6.9 58.6 19 26.5 18.3 40.6 44.3 45.9 75.5 2.3 13.7 2.8 27.5 1.1 41.8h-151.8c.4 8.5 3.5 15.2 8.8 21 16.2 17.5 47.6 16.9 63.8-1.5 2.9-3.3 5.1-3.4 8.8-2 20.6 8.1 41.3 16 61.9 23.9.3.1.5.4 1.3.9zm-70.3-88.3c-1.4-18.6-18.6-31.3-39.9-29.6-19.2 1.5-34.6 15.2-33.3 29.6h73.2zM1075.8 770.2h-53.7v155.4h-80.2V770.2h-29.4v-64.6h28.9c.5-8.7.7-16.9 1.6-24.9 3-24.8 12.4-46.6 32.4-62.6 16.3-13.1 35.5-18.6 56-19.9 14.9-.9 29.6.1 43.8 5.4 2.5.9 4.2 1.9 4.2 5.2-.2 20-.1 40-.1 60 0 .8-.2 1.6-.3 1.9-7.4-1.3-14.5-3.3-21.7-3.6-24-1.1-37.2 13.4-34.9 38.3H1075.8v64.8zM2147.7 782.1c-10-3.3-19.3-7.8-29.1-9.3-9-1.3-18.8-.8-27.6 1.4-20.8 5.1-32.8 22-32.3 43 .5 20.1 13.7 36 34.2 40.7 17.6 4.1 34 .9 49.5-8.1 1.4-.8 2.9-1.7 4.3-2.5.1-.1.3.1.9.3 0 .9.1 2 .1 3.1 0 21.7 0 43.3.1 65 0 2.6-.5 4.2-3.1 5.4-46 21.9-117.4 11.9-150.2-40.8-29.3-47.1-25.1-127.9 36.5-163.9 35.8-20.9 73.8-22.8 112.4-7.6 1.8.7 4.2 2.9 4.2 4.5.2 23.2.1 46.3.1 68.8zM2278 386.4c50.8.2 89.2 39.2 89 90.1-.3 51.5-41.1 91.7-93.1 91.5-49.8-.2-88.7-39.7-88.4-89.8.4-51.1 41.5-92 92.5-91.8zM1184.4 925.7h-80.1V705.6h80.1v220.1zM1144 685.1c-24.7-.1-45.1-20.4-44.9-44.8.2-24.2 20.7-44.2 45.1-44.2 25 0 45.7 20.6 45.4 44.9-.3 24.5-20.7 44.2-45.6 44.1z" fill="#fff"/></svg>

<svg width="2544" height="933" viewBox="0 0 2544 933" fill="none" xmlns="http://www.w3.org/2000/svg">
<path d="M1048.9 0C1048.9 69.6 1048.9 139.1 1048.9 209.8C1050.6 207.9 1051.6 206.9 1052.6 205.8C1076.6 178.2 1107.4 164.8 1143.5 163.1C1167.8 162 1191.4 165.5 1213.3 176.7C1245.7 193.1 1265.1 220.2 1275.9 254.1C1282.3 274.1 1284.8 294.7 1284.8 315.7C1284.9 395.9 1284.8 476 1284.8 556.2C1284.8 557.7 1284.8 559.1 1284.8 560.9C1238.9 560.9 1193.5 560.9 1147.3 560.9C1147.3 558.8 1147.3 556.7 1147.3 554.6C1147.3 486.6 1147.5 418.6 1147.1 350.6C1147 340.4 1145.6 329.9 1142.8 320.1C1138.1 303.5 1126.7 293 1109.4 290.4C1090.9 287.6 1074.5 291.9 1062.7 307.5C1053.8 319.2 1050.3 332.9 1050 347.3C1049.5 368 1049.8 388.6 1049.8 409.3C1049.8 457.8 1049.8 506.3 1049.8 554.8C1049.8 556.8 1049.8 558.7 1049.8 560.9C1003.8 560.9 958.4 560.9 912.3 560.9C912.3 558.5 912.3 556.2 912.3 554C912.3 371.7 912.3 189.4 912.3 7.1C912.3 4.8 912.1 2.5 912 0.1C957.6 0 1003.3 0 1048.9 0Z" fill="white"/>
<path d="M2543.9 1C2536.2 19.2 2528.5 37.4 2520.9 55.7C2480.5 153.1 2440.2 250.5 2399.9 348C2398.7 350.9 2397.4 352.5 2393.9 352.4C2342.6 352.3 2291.3 352.3 2240 352.3C2238.7 352.3 2237.4 352.1 2235.2 352C2283.9 234.4 2332.4 117.2 2380.9 0C2433.9 0 2486.9 0 2539.9 0C2541.3 0 2542.6 0.7 2543.9 1Z" fill="white"/>
<path d="M734.1 207.6C734.1 195.5 734.1 184.1 734.1 172.4C778.3 172.4 822 172.4 866.2 172.4C866.2 301.8 866.2 431.1 866.2 560.8C822.2 560.8 778.3 560.8 734 560.8C734 549.2 734 537.8 734 525.4C732.9 526.4 732.4 526.7 732 527.1C712.3 551.4 686.1 564.2 655.8 568.8C574.2 581.2 497.7 539.6 464.1 461.5C428.6 379 436.3 299.7 492.8 228.5C529 183 578 161 636.5 163.3C674 164.8 707.1 177.6 732.4 206.8C732.6 207 732.9 207 734.1 207.6ZM576.5 367C576.5 412.1 611.5 446.9 656.8 447C701.8 447.1 736.8 412.2 736.9 367.4C737 322.2 702 287.1 656.9 287.1C611.6 287.2 576.5 322 576.5 367Z" fill="white"/>
<path d="M106.4 705C112.3 691 117.9 677.7 123.6 664.4C137.1 632.4 150.6 600.3 164.3 568.3C165.6 565.3 165.6 562.9 164.3 559.9C110.3 432.9 56.4 305.7 2.6 178.6C1.8 176.7 1 174.7 0 172.2C2.5 172.2 4.3 172.2 6.1 172.2C51.8 172.2 97.4 172.3 143.1 172.1C147.4 172.1 149.4 173.3 151 177.4C179.2 249.8 207.5 322.1 235.8 394.5C236.4 396 237 397.5 238 399.9C238.9 397.9 239.5 396.7 240 395.5C268.6 322.9 297.3 250.4 325.8 177.8C327.5 173.6 329.4 172.2 334 172.2C378.3 172.4 422.7 172.3 467 172.3C468.8 172.3 470.6 172.3 472.9 172.3C472.4 173.9 472.1 175.2 471.7 176.4C399.1 351.4 326.5 526.4 254 701.5C252.9 704.3 251.6 705.7 248.3 705.7C202.5 705.6 156.6 705.6 110.8 705.6C109.6 705.4 108.4 705.2 106.4 705Z" fill="white"/>
<path d="M1312.9 367.2C1313.4 265.4 1381.2 183.8 1481.9 166.5C1548.5 155.1 1609.6 169 1661.6 213.9C1699.2 246.3 1720.6 288.1 1727.2 337.2C1734.1 388.9 1724.9 437.5 1695.8 481.3C1663.5 529.8 1617.5 558 1560.5 567.8C1511 576.3 1463 570.3 1418.5 546C1360 514.2 1326.2 464.5 1315.9 398.9C1314.2 388.5 1313.8 377.8 1312.9 367.2ZM1521.5 445.3C1565.5 445.3 1598.9 411.4 1599 367.1C1599 322.7 1565.6 288.9 1521.6 288.8C1477.3 288.7 1443.9 322.6 1443.9 367.2C1444 411.7 1477.5 445.4 1521.5 445.3Z" fill="white"/>
<path d="M2169 367C2168.4 468.4 2101.3 549.6 2001 567.4C1937.9 578.6 1879.2 566.6 1828 526.6C1786.2 493.9 1762.2 450.3 1754.9 397.9C1747.8 347.1 1756.4 299.2 1784.3 255.8C1817 205 1864.3 175.8 1923.5 166.1C1970.8 158.3 2016.7 163.9 2059.5 186.1C2120.2 217.6 2155.4 267.9 2166 335.3C2167.7 345.7 2168 356.4 2169 367ZM1960.4 445.3C2004.4 445.4 2037.9 411.7 2038 367.3C2038.1 322.8 2004.8 289 1960.9 288.8C1916.6 288.7 1883 322.5 1883 367C1883 411.4 1916.4 445.3 1960.4 445.3Z" fill="white"/>
<path d="M1624.8 728.4C1624.8 720.1 1624.8 713.1 1624.8 705.8C1651.3 705.8 1677.5 705.8 1703.9 705.8C1703.9 779.1 1703.9 852.2 1703.9 925.6C1677.7 925.6 1651.7 925.6 1624.9 925.6C1624.9 918.5 1624.9 911.3 1624.9 904C1621.2 907.4 1618.1 910.6 1614.7 913.4C1596.1 929 1574.3 934.1 1550.7 931.5C1513.3 927.4 1486.1 907.5 1470.6 873.8C1449.1 827 1451.8 780.9 1482.5 738.6C1508.5 702.7 1556.3 689.7 1595.3 705.9C1606.7 710.6 1616.3 717.6 1624.8 728.4ZM1627 815.5C1627 790.8 1607 771.1 1581.9 771.1C1556.6 771 1536.3 790.9 1536.4 815.7C1536.5 840.4 1556.4 860 1581.6 860C1607.1 860.1 1627.1 840.6 1627 815.5Z" fill="white"/>
<path d="M1298.9 925.7C1271.8 925.7 1245.4 925.7 1218.5 925.7C1218.5 852.5 1218.5 779.3 1218.5 705.7C1245 705.7 1271.6 705.7 1298.7 705.7C1298.7 713.4 1298.7 721.2 1298.7 730.1C1300 728.7 1300.6 728.2 1301 727.6C1317 705.5 1339.3 697.7 1365.6 699.5C1406 702.3 1428.5 730 1433.8 766C1434.9 773.4 1435.3 780.9 1435.3 788.4C1435.4 832.1 1435.4 875.7 1435.4 919.4C1435.4 921.4 1435.4 923.3 1435.4 925.6C1408.5 925.6 1382.1 925.6 1354.8 925.6C1354.8 923.8 1354.8 921.9 1354.8 920C1354.8 882.7 1354.9 845.3 1354.7 808C1354.7 801.8 1353.7 795.3 1351.8 789.4C1348.6 779.2 1341.1 773.6 1330.4 772.7C1319.4 771.8 1310.4 775.4 1304.5 785.2C1300.2 792.4 1298.9 800.4 1298.9 808.7C1298.9 845.5 1298.9 882.4 1298.9 919.2C1298.9 921.2 1298.9 923.2 1298.9 925.7Z" fill="white"/>
<path d="M1818.4 705.7C1818.4 713.4 1818.4 721 1818.4 728.6C1819 728.9 1819.5 729.3 1820.1 729.6C1820.4 728.8 1820.4 727.9 1820.9 727.3C1836.7 705.5 1858.8 697.8 1884.7 699.5C1926.9 702.3 1949.2 731.7 1953.9 768.9C1954.7 774.8 1955 780.9 1955 786.8C1955.1 831.6 1955.1 876.5 1955 921.3C1955 922.6 1954.9 923.9 1954.8 925.6C1928.1 925.6 1901.5 925.6 1874.2 925.6C1874.2 923.6 1874.2 921.7 1874.2 919.7C1874.2 882.5 1874.3 845.4 1874.1 808.2C1874.1 802.1 1873.4 795.8 1871.7 790C1868.5 779.5 1860.9 773.5 1849.7 772.6C1838.4 771.8 1829.5 775.8 1823.7 785.8C1819.3 793.4 1818.5 801.8 1818.5 810.4C1818.5 846.7 1818.5 883.1 1818.5 919.4C1818.5 921.4 1818.5 923.3 1818.5 925.6C1791.5 925.6 1765.1 925.6 1738.3 925.6C1738.3 852.4 1738.3 779.2 1738.3 705.6C1764.7 705.7 1791.2 705.7 1818.4 705.7Z" fill="white"/>
<path d="M2385.8 878.1C2374.8 896.6 2360.1 910.9 2340.7 919.5C2302.7 936.2 2264 937.1 2225.7 921.1C2194.2 908 2174.9 883.5 2166.9 850.6C2157.9 813.8 2161.5 778.5 2184.2 747.1C2209.5 712.1 2244.9 697.6 2287.4 699.5C2308.6 700.4 2328.4 706.4 2346 718.5C2372.5 736.8 2386.6 762.8 2391.9 794C2394.2 807.7 2394.7 821.5 2393 835.8C2342.5 835.8 2292.1 835.8 2241.2 835.8C2241.6 844.3 2244.7 851 2250 856.8C2266.2 874.3 2297.6 873.7 2313.8 855.3C2316.7 852 2318.9 851.9 2322.6 853.3C2343.2 861.4 2363.9 869.3 2384.5 877.2C2384.8 877.3 2385 877.6 2385.8 878.1ZM2315.5 789.8C2314.1 771.2 2296.9 758.5 2275.6 760.2C2256.4 761.7 2241 775.4 2242.3 789.8C2266.7 789.8 2291.1 789.8 2315.5 789.8Z" fill="white"/>
<path d="M1075.8 770.2C1057.9 770.2 1040.3 770.2 1022.1 770.2C1022.1 822.2 1022.1 873.7 1022.1 925.6C995.2 925.6 968.8 925.6 941.9 925.6C941.9 873.9 941.9 822.4 941.9 770.2C931.8 770.2 922.3 770.2 912.5 770.2C912.5 748.5 912.5 727.4 912.5 705.6C922.1 705.6 931.6 705.6 941.4 705.6C941.9 696.9 942.1 688.7 943 680.7C946 655.9 955.4 634.1 975.4 618.1C991.7 605 1010.9 599.5 1031.4 598.2C1046.3 597.3 1061 598.3 1075.2 603.6C1077.7 604.5 1079.4 605.5 1079.4 608.8C1079.2 628.8 1079.3 648.8 1079.3 668.8C1079.3 669.6 1079.1 670.4 1079 670.7C1071.6 669.4 1064.5 667.4 1057.3 667.1C1033.3 666 1020.1 680.5 1022.4 705.4C1031.2 705.4 1040.1 705.4 1049 705.4C1057.8 705.4 1066.6 705.4 1075.8 705.4C1075.8 727 1075.8 748.2 1075.8 770.2Z" fill="white"/>
<path d="M2147.7 782.1C2137.7 778.8 2128.4 774.3 2118.6 772.8C2109.6 771.5 2099.8 772 2091 774.2C2070.2 779.3 2058.2 796.2 2058.7 817.2C2059.2 837.3 2072.4 853.2 2092.9 857.9C2110.5 862 2126.9 858.8 2142.4 849.8C2143.8 849 2145.3 848.1 2146.7 847.3C2146.8 847.2 2147 847.4 2147.6 847.6C2147.6 848.5 2147.7 849.6 2147.7 850.7C2147.7 872.4 2147.7 894 2147.8 915.7C2147.8 918.3 2147.3 919.9 2144.7 921.1C2098.7 943 2027.3 933 1994.5 880.3C1965.2 833.2 1969.4 752.4 2031 716.4C2066.8 695.5 2104.8 693.6 2143.4 708.8C2145.2 709.5 2147.6 711.7 2147.6 713.3C2147.8 736.5 2147.7 759.6 2147.7 782.1Z" fill="white"/>
<path d="M2278 386.4C2328.8 386.6 2367.2 425.6 2367 476.5C2366.7 528 2325.9 568.2 2273.9 568C2224.1 567.8 2185.2 528.3 2185.5 478.2C2185.9 427.1 2227 386.2 2278 386.4Z" fill="white"/>
<path d="M1184.4 925.7C1157.5 925.7 1131 925.7 1104.3 925.7C1104.3 852.3 1104.3 779.1 1104.3 705.6C1131 705.6 1157.5 705.6 1184.4 705.6C1184.4 779 1184.4 852.2 1184.4 925.7Z" fill="white"/>
<path d="M1144 685.1C1119.3 685 1098.9 664.7 1099.1 640.3C1099.3 616.1 1119.8 596.1 1144.2 596.1C1169.2 596.1 1189.9 616.7 1189.6 641C1189.3 665.5 1168.9 685.2 1144 685.1Z" fill="white"/>
</svg>
